icon-themes/sifr_svg/cmd/lc_graphicfilterrelief.svg

<svg viewBox="0 0 24 24" xmlns="http://www.w3.org/2000/svg"><g fill="#555753"><path d="m2 2v20h20v-20zm2 2h16v16h-16zm4 4v8h8v-8zm2 2h4v4h-4z"/><path d="m4 4v16h16v-16z" opacity=".35"/></g></svg>

<svg xmlns="http://www.w3.org/2000/svg" viewBox="0 0 24 24">
  <path
     style="fill:#555753"
     d="M 2,2 V 22 H 22 V 2 Z M 4,4 H 20 V 20 H 4 Z m 4,4 v 8 h 8 V 8 Z m 2,2 h 4 v 4 h -4 z"
     />
  <path
     style="opacity:0.35;fill:#555753"
     d="M 4,4 V 20 H 20 V 4 Z"
     />
</svg>
